X:353
T:Milley's Bequest - Lichfield
M:4/4
L:1/8
K:G
G2 GA B2 G2 | E2 cc c4 | D2 DE F2 c2 | B4 A4 |
G2 GA B2 G2 | E2 cc c4 | D2 DE F2 GA | A4 G4 ||
d2 dd c2 c2 | BcdB A4 | d2 dd c2 cc | B4 A4 |
G2 GA B2 G2 | E2 cc c4 | D2 DE F2 GA | A4 G4 ||
